X:1
T:Title
%%score ( 1 2 ) { 3 | 4 }
L:1/8
Q:1/4=135
M:6/4
K:G
V:1 treble nm="Grand Piano, Soprano"
V:2 treble 
V:3 bass nm="Choir Pad, Bass"
V:4 bass 
V:1
 D2 E2 F2 A2 G2 E2 | [CF]4 [B,G]2 [CA]6 | [B,B]2 [CF]2 [DG]2 [CE]4 [CG]2 | [B,D]12 | %4
w: By~Robert~Harkness * * * * *||||
 D2 E2 F2 c2 B2 A2 | G4 [FA]2 B2- [FB-]2 [=FB]2 | .A6 .F6 | [CA]12 | %8
w: ||||
 [B,D]2 [B,E]2 [B,F]2 [B,A]4 [B,G]2 | c12 | [Fc]2 [FB]2 [FA]2 [=F^G]4 [^FA]2 | d12 | %12
w: ||||
 [^Gd]3 [Ge] [Gd]2 [GB]2 [Gc]2 [GB]2 | [EA]2 E2 [EA]2 [Ec]6 | [GB]2 [DA]2 [DG]2 [CE]4 [CF]2 | %15
w: |||
 G12- | G6 z6 |] %17
w: ||
V:2
 B,6 B,6 | x12 | x12 | x12 | C6 F6 | z6 .G6 | D2- [D-G]2 [DF]2 ^C4- [CE]2 | x12 | x12 | D4 F2 F6 | %10
 x12 | G4 F2 G6 | x12 | x12 | x12 | B,4 C2 B,6- | B,6 z6 |] %17
V:3
 D,6 D,6 | D,4 G,2 F,6 | G,2 D,2 G,2 G,4 G,2 | G,6 .G,,6 | F,2 G,2 A,2[K:treble] E2 D2 C2 | %5
 B,4 D2 D6 | F,2 B,2 A,2 A,4 G,2 | F,12 | D,2 D,2 D,2 D,4 D,2 | F,4 A,2 A,6 | F2 D2 C2 B,4 C2 | %11
 D4 C2[K:bass] B,6 | B,3 B, B,2 D2[K:treble] E2 D2 | C2 C2 C2 E6 | D2 C2[K:bass] B,2 B,4 A,2 | %15
 G,2 F,2 E,2 D,6- | D,6 z6 |] %17
V:4
 G,,6 G,,6 | A,,4 D,2 D,6 | G,,2 A,,2 B,,2 C,4 E,2 | z12 | D,6 D,4 ^D,2 | E,4 D,2 G,4 ^G,,2 | %6
 A,,6 A,,6 | D,12 | G,,2 G,,2 G,,2 G,,4 G,,2 | A,,4 D,2 D,6 | D,2 D,2 D,2 D,4 D,2 | %11
 B,4 A,2 G,2 F,2 =F,2 | E,3 E, E,2 E,2 E,2 E,2 | A,2 A,2 A,2 A,4 A,,2 | D,2 D,2 D,2 D,4 D,2 | %15
 G,,4 G,,2 G,,6- | G,,6 z6 |] %17

